X:85
T: Duggan's Favorite
S: "Johnny O'Leary of Sliabh Luachra" (#5)
Z: B.Black
Q: 300
L: 1/8
M: 6/8
R: jig
K: D
ABA DFA|Bee Bee|d2B AF/G/A|Bcd edB|
AFE DFA|Bee Bee|faf ede|1 fdc dcB :|2\
fdc d3||
afe dfa|bab efg|fgf dfa|gfg efg|
faf dfa|bee ede|faf ede|fdc d3 :|
